X:1
T:Title
L:1/8
Q:1/4=100
M:4/4
K:F
V:1 treble nm="Grand Piano"
V:1
 z A2 A A3 F- | F G2 G G4- | G E2 E E3 C- | C D2 E FE D2- | D A2 A c3 F- | F G2 G G4- | %6
 G G2 G G3 A- | A B2 c A2 A2 | z d2 d d3 d- | d d2 d ^c=B A2- | A A2 A ^c2 A2- | A A2 A d2 d2- | %12
 d d2 d .d2 z d- | d d2 d ^c=B A2- | A A2 A ^c2 A2- | A A2 A d2 d2 |] %16

